X: 1901
T: None so Pretty
%
P: Johnnie in Nether Mains
C:Niel Gow
R:Reel (8x40) ABABB
B:RSCDS 19-1(I)
Z:Anselm Lingnau <anselm@strathspey.org>
M:4/4
L:1/8
K:F
C|"F"F4 F2A>c|dc Ac "Bb"d2f2|"F"c2A2 "Dm"A2GF|"Gm"A2G2 "C7"F2D2|
  "F"F4 F2Ac|dc Ac "Bb"d2e2|"F/A"f3g "Bb"fgab|"C7"a2g2 "F"f3||
c|"F"f3g fedc|"Bb"d2c2 "F"A2c2|f3g "Dm"afga|"Bb"d4 "C7"c2 de|
  "Dm"fdgf "C"ecfe|"Dm"dc Ac "C7"de fg|"F"a3A "Bb"BA GF|"C7"A2G2 "F"F3|]
%
P: Bessie's Haggies
C: J.MacFadyen
B: RSCDS 19-1(II)
Z: John Chambers <jc:trillian.mit.edu>
R: reel, march
M: C|
L: 1/8
K: D
A, \
| "D"D2 F>E D2 A2 | "G"BA GF "A7"E>D EF \
| "D"D2 F>E D2 A2 | "G"B>c "D"dA F2 A2 |
| "Bm"B2 d2 "F#m"F2 A2 | "G"BA GF "A7"E>D EF \
| "Bm"D2 F2 "A7"A2 d>e | "G"f2 D2 "D"F2 A2 ||
|| "D"D2 A2 d2 cB | "A7"c>d c/d/e E3 F \
| "D"D2 A2 "Bm"d2 de | "A"dc BA "D"d3 e |
| "D"fd "A"ec "Bm"dB "F#m"cA | "Em"BA GF "A"E>D EF \
| "D"DE FG "A7"AB cA | "Bm"d>e fD "D"F2 A2 |]
%%center Book19/1901-None_so_Pretty.abc

%%sep 1 1 500
%%sep 1 1 500

